img/Footer/Инстаграм.svg

<svg width="36" height="36" viewBox="0 0 36 36" fill="none" xmlns="http://www.w3.org/2000/svg">
<path d="M18 35C27.3888 35 35 27.3888 35 18C35 8.61116 27.3888 1 18 1C8.61116 1 1 8.61116 1 18C1 27.3888 8.61116 35 18 35Z" stroke="white" stroke-opacity="0.5" stroke-width="2"/>
<g opacity="0.8">
<path d="M22.92 18C22.92 19.3155 22.3974 20.5771 21.4673 21.5072C20.5371 22.4374 19.2755 22.96 17.96 22.96C16.6445 22.96 15.3829 22.4374 14.4528 21.5072C13.5226 20.5771 13 19.3155 13 18C13.001 17.6158 13.048 17.233 13.14 16.86H12.24V23.7H23.64V16.86H22.74C22.8406 17.2325 22.901 17.6147 22.92 18Z" fill="white"/>
<path d="M18 20.66C18.5252 20.656 19.0375 20.4967 19.4723 20.202C19.9071 19.9073 20.245 19.4905 20.4432 19.0042C20.6415 18.5178 20.6913 17.9836 20.5864 17.4689C20.4816 16.9542 20.2266 16.4821 19.8539 16.1121C19.4811 15.7421 19.0071 15.4908 18.4916 15.3897C17.9762 15.2887 17.4424 15.3425 16.9575 15.5445C16.4726 15.7464 16.0584 16.0873 15.7669 16.5243C15.4755 16.9613 15.32 17.4748 15.32 18C15.3213 18.3506 15.3917 18.6976 15.5271 19.021C15.6625 19.3444 15.8602 19.638 16.1091 19.8851C16.358 20.1321 16.653 20.3276 16.9775 20.4606C17.3019 20.5936 17.6494 20.6613 18 20.66Z" fill="white"/>
<path d="M23.68 12.3H20.64V15.34H23.68V12.3Z" fill="white"/>
<path d="M18 2C14.8355 2 11.7421 2.93838 9.11088 4.69649C6.4797 6.45459 4.42894 8.95345 3.21793 11.8771C2.00693 14.8007 1.69008 18.0177 2.30744 21.1214C2.92481 24.2251 4.44866 27.0761 6.6863 29.3137C8.92394 31.5513 11.7749 33.0752 14.8786 33.6926C17.9823 34.3099 21.1993 33.9931 24.1229 32.7821C27.0466 31.5711 29.5454 29.5203 31.3035 26.8891C33.0616 24.2579 34 21.1645 34 18C34 13.7565 32.3143 9.68687 29.3137 6.68629C26.3131 3.68571 22.2435 2 18 2ZM26 23.7C26.0027 24.0045 25.9444 24.3064 25.8285 24.588C25.7127 24.8696 25.5416 25.1251 25.3253 25.3395C25.1091 25.5539 24.8521 25.7228 24.5695 25.8362C24.2869 25.9497 23.9845 26.0054 23.68 26H12.28C11.9793 25.9987 11.6818 25.9382 11.4044 25.8219C11.1271 25.7056 10.8754 25.5358 10.6637 25.3222C10.4519 25.1086 10.2844 24.8554 10.1705 24.5771C10.0566 24.2988 9.99869 24.0007 10 23.7V12.3C9.99869 11.9993 10.0566 11.7012 10.1705 11.4229C10.2844 11.1446 10.4519 10.8914 10.6637 10.6778C10.8754 10.4642 11.1271 10.2944 11.4044 10.1781C11.6818 10.0618 11.9793 10.0013 12.28 10H23.67C23.9749 9.99467 24.2778 10.0503 24.561 10.1636C24.8441 10.2769 25.1017 10.4457 25.3188 10.6599C25.5358 10.8742 25.7079 11.1296 25.8249 11.4112C25.9418 11.6929 26.0014 11.995 26 12.3V23.7Z" fill="white"/>
</g>
</svg>

<svg width="36" height="36" fill="none" xmlns="http://www.w3.org/2000/svg"><path d="M18 35c9.389 0 17-7.611 17-17S27.389 1 18 1 1 8.611 1 18s7.611 17 17 17z" stroke="#fff" stroke-opacity=".5" stroke-width="2"/><g opacity=".8" fill="#fff"><path d="M22.92 18A4.96 4.96 0 1113 18c.001-.384.048-.767.14-1.14h-.9v6.84h11.4v-6.84h-.9c.1.373.161.755.18 1.14z"/><path d="M18 20.66A2.66 2.66 0 1015.32 18 2.67 2.67 0 0018 20.66zM23.68 12.3h-3.04v3.04h3.04V12.3z"/><path d="M18 2a16 16 0 100 32 16 16 0 000-32zm8 21.7a2.28 2.28 0 01-2.32 2.3h-11.4A2.29 2.29 0 0110 23.7V12.3a2.29 2.29 0 012.28-2.3h11.39A2.29 2.29 0 0126 12.3v11.4z"/></g></svg>
